X:1
T:Title
%%score { ( 1 3 ) | ( 2 4 5 ) }
L:1/8
Q:1/4=92
M:4/4
K:Eb
V:1 treble nm="Grand Piano"
V:3 treble 
V:2 bass 
V:4 bass 
V:5 bass 
V:1
 GG_G=G B3 E | EE [EG]>[DF] F E3 | [DF][DF][DF][EG] [FA]3 [FA] | [Ac][GB] [GB]>[FA] G4 | %4
w: L.~O.~Brown * * * * *||||
 GG_G=G B3 B | AG [EA]>[EB] [Ed] [Ec]3 | [Ec][=EB]AG FcBB | e2 [Ad]2 [Ge]4 | [GB]2 [EG][GB] [Ge]4 | %9
w: |||||
 [Ac][CEA][EAc][EAe] [EGB]4 | GGGA BcBG | D4- [DB]4 | B2 G[GB] [Ge]4 | [Ac][CEA][EAc][EAe] [EGB]4 | %14
w: |||||
 z4 z2 z G | E6 z2 |] %16
w: ||
V:2
 [E,B,E][E,B,E][E,=A,E][E,B,E] [E,G,D]3 [E,G,] | [E,G,][E,G,] [B,,B,]>[B,,A,] [E,A,D] [E,G,]3 | %2
 [B,,B,][B,,B,][B,,B,][B,,B,] [B,,B,]3 [B,,B,] | [B,,B,][B,,B,] [C,B,]>[D,B,] [E,B,E]4 | %4
 [E,B,E][E,B,E][E,=A,E][E,B,E] [E,G,E]3 [G,B,E] | [F,B,D][E,B,E] [C,A,]>[C,G,] [A,,A,] [A,,A,]3 | %6
 [A,,A,][C,G,][K:treble][F,F][G,C=E] [A,C][=A,_E_G][B,E=G][B,FA] | %7
 [B,EG]2[K:bass] [B,,B,]2 [E,B,]4 | [E,E]2 [E,B,][E,E] [E,B,]4 | [A,,A,]A,,A,,C, E,4 | %10
 [E,B,E][E,B,E][E,B,E][E,CE] [E,G,E][E,A,E][E,G,E][E,B,E] | z4 A,4 | %12
 [E,G,E]2 [E,B,E][E,E] [E,B,]4 | [A,,A,]A,,A,,C, E,4 | z4 z2 z E | [G,B,]B,=A,_A, G,2 z2 |] %16
V:3
 x8 | x8 | x8 | x8 | x8 | x8 | x8 | x8 | x8 | x8 | x8 | [B,F]4 z4 | x8 | x8 | GGGA BG .[DF]>B, | %15
 z _DC=B, _B,2 z2 |] %16
V:4
 x8 | x8 | x8 | x8 | x8 | x8 | x2[K:treble] x6 | x2[K:bass] x6 | x8 | x8 | x8 | B,,8 | x8 | x8 | %14
 [E,B,E][E,B,E][E,B,E][E,CE] [E,G,E][E,B,E] z z/ B,,/ | E,6 z2 |] %16
V:5
 x8 | x8 | x8 | x8 | x8 | x8 | x2[K:treble] x6 | x2[K:bass] x6 | x8 | x8 | x8 | x8 | x8 | x8 | %14
 z4 z2 [B,,A,]2 | x8 |] %16

